X:39
T: The Tennessee Waltz  (Pee Wee King [Julius Frank Anthony Kuczynski] 1914-2000)
M: 3/4 %% X:14 WJ 2012
L: 1/8
K: D
% %%vskip .09cm
                                                   DE  |\
"D"F2 A2 DE |   F2 A2 de |"D7"f2 a2 fe  |"G"d2 (B2 Bc) |\
"D"d2 A2 F2 |   B2 A2 F2 | "A"E4   (EF) |   E4    (DE) |
"D"F2 A2 DE |   F2 A2 de |"D7"f2 a2 fe  |"G"d2 (B2 Bc) |\
"D"d2 A2 F2 |"A"G2 F2 E2 | "D"D4   (DE) |"D"D4    (de) ||
"D"f2 f3  f |"F#7"e4    fe | "G"d2 B2 d2  |"D"A4  Bc     |\
"D"d2 A2 F2 |     B2 A2 F2 | "A"E4   (EF) |   E4 (DE)    |
"D"F2 A2 DE |     F2 A2 de |"D7"f2 a2 fe  |"G"d2 (B2 Bc) |\
"D"d2 A2 F2 |  "A"G2 F2 E2 | "D"D4   (DE) |   D4         |]
% %%stretchlast


